assets/images/php.svg

<svg width="50" height="24" viewBox="0 0 50 24" fill="none" xmlns="http://www.w3.org/2000/svg">
<path d="M10.026 8.0096C11.5728 8.0096 12.6327 8.29772 13.1483 8.90276C13.664 9.47899 13.7786 10.5162 13.5207 11.8703C13.2343 13.3974 12.69 14.377 11.8593 15.0108C11.0572 15.6447 9.82545 15.9616 8.16401 15.9616H5.67184L7.19005 8.0096H10.026ZM0 24H4.12497L5.09892 18.958H8.62234C10.1692 18.958 11.4296 18.7851 12.4322 18.4682C13.4348 18.1225 14.3515 17.575 15.1822 16.7971C15.8697 16.1633 16.4139 15.4718 16.8436 14.6939C17.2733 13.9448 17.5884 13.0804 17.7316 12.1585C18.19 9.91117 17.8749 8.15366 16.7863 6.91477C15.6692 5.64706 13.9504 5.04202 11.5728 5.04202H3.66664L0 24ZM20.7681 0L17.1014 18.958H21.1691L23.2889 8.09604H26.5545C27.5857 8.09604 28.2732 8.26891 28.5883 8.61465C28.9034 8.96039 28.9607 9.59424 28.7889 10.5162L27.1561 18.958H31.3097L32.9998 10.1128C33.3722 8.32653 33.0857 7.03001 32.2263 6.19448C31.367 5.41657 29.7915 5.04202 27.4998 5.04202H23.8618L24.8931 0H20.7681ZM42.0804 8.0096C43.6559 8.0096 44.6872 8.29772 45.2028 8.90276C45.7184 9.47899 45.833 10.5162 45.5752 11.8703C45.2887 13.3974 44.7445 14.377 43.9424 15.0108C43.1117 15.6447 41.8799 15.9616 40.2185 15.9616H37.7836L39.2159 8.0096H42.0804ZM32.0545 24H36.1794L37.1534 18.958H40.6482C42.2237 18.958 43.5127 18.7851 44.5153 18.4682C45.5179 18.1225 46.3773 17.575 47.2366 16.7971C47.9241 16.1633 48.4971 15.4718 48.8981 14.6939C49.3278 13.9448 49.6429 13.0804 49.8148 12.1585C50.2444 9.91117 49.9293 8.15366 48.8408 6.91477C47.8096 5.64706 46.0049 5.04202 43.6273 5.04202H35.7498L32.0545 24Z" fill="#626262"/>
</svg>

<svg width="50" height="24" viewBox="0 0 50 24" fill="none" xmlns="http://www.w3.org/2000/svg"><path d="M10.026 8.01c1.547 0 2.607.288 3.122.893.516.576.63 1.613.373 2.967-.287 1.527-.831 2.507-1.662 3.14-.802.635-2.034.952-3.695.952H5.672L7.19 8.01h2.836ZM0 24h4.125l.974-5.042h3.523c1.547 0 2.808-.173 3.81-.49a7.61 7.61 0 0 0 2.75-1.67 8.265 8.265 0 0 0 1.662-2.104c.43-.75.744-1.614.888-2.536.458-2.247.143-4.004-.946-5.243-1.117-1.268-2.836-1.873-5.213-1.873H3.667L0 24ZM20.768 0l-3.667 18.958h4.068l2.12-10.862h3.265c1.032 0 1.72.173 2.034.519.315.345.373.98.2 1.901l-1.632 8.442h4.154L33 10.113c.372-1.786.086-3.083-.774-3.919-.859-.777-2.434-1.152-4.726-1.152h-3.638L24.893 0h-4.125ZM42.08 8.01c1.576 0 2.607.288 3.123.893.515.576.63 1.613.372 2.967-.286 1.527-.83 2.507-1.633 3.14-.83.635-2.062.952-3.724.952h-2.434l1.432-7.952h2.864ZM32.054 24h4.125l.974-5.042h3.495c1.576 0 2.865-.173 3.867-.49 1.003-.346 1.862-.893 2.722-1.67.687-.635 1.26-1.326 1.661-2.104.43-.75.745-1.614.917-2.536.43-2.247.114-4.004-.974-5.243-1.031-1.268-2.836-1.873-5.214-1.873H35.75L32.054 24Z" fill="#626262"/></svg>
